src/pos-icons/signal-3g.svg

<svg height="24" viewBox="0 0 24 24" width="24" xmlns="http://www.w3.org/2000/svg"><path d="m11 16.5v-2.25c0-1.25-1-2.25-2.25-2.25 1.25 0 2.25-1 2.25-2.25v-2.25a3 3 0 0 0 -3-3h-6v3h6v3h-3v3h3v3h-6v3h6a3 3 0 0 0 3-3m11 0v-6h-4.5v3h1.5v3h-3v-9h6v-3h-6a3 3 0 0 0 -3 3v9a3 3 0 0 0 3 3h3a3 3 0 0 0 3-3z"/></svg>

<?xml version="1.0" encoding="UTF-8"?><!DOCTYPE svg PUBLIC "-//W3C//DTD SVG 1.1//EN" "http://www.w3.org/Graphics/SVG/1.1/DTD/svg11.dtd"><svg xmlns="http://www.w3.org/2000/svg" xmlns:xlink="http://www.w3.org/1999/xlink" version="1.1" id="mdi-signal-3g" width="24" height="24" viewBox="0 0 24 24"><path d="M11,16.5V14.25C11,13 10,12 8.75,12C10,12 11,11 11,9.75V7.5A3,3 0 0,0 8,4.5H2V7.5H8V10.5H5V13.5H8V16.5H2V19.5H8A3,3 0 0,0 11,16.5M22,16.5V10.5H17.5V13.5H19V16.5H16V7.5H22V4.5H16A3,3 0 0,0 13,7.5V16.5A3,3 0 0,0 16,19.5H19A3,3 0 0,0 22,16.5Z" /></svg>
